X:1
T:Where Am I To Go?
M:4/4
L:1/4
K:C
 G3/2 A/2 G E| D3/2 C/2A,/2 G,3/2| A,3/2 A,/2 B, G,| E2 F/2 D3/2| C2 D2|\
 E2 z2| B3/2 c/2d/2-B/2 G| c4| c3/2 d/2 c A| G3/2 A/2G/2 E3/2| D3/2 E/2 D C|\
 A,2 z2| C3/2 D/2 E F| G G A F| E3/2 F/2 E D| C3 z|

